X: 524
U:~=!turn!
M:C
L:1/8
K:F dorian
E | B,EG,E B,G,G,E | B,G,B,E G2 GB | B,EG,E B,EGB | AGFE F2 F :| c | B<G {/G}e2 BGGc | BGBc (Be)dc |


